src/components/00-materials/images-raw/Sickness.svg

<svg width="96" height="96" viewBox="0 0 96 96" fill="none" xmlns="http://www.w3.org/2000/svg">
<path d="M14.7397 35.3633C15.5602 35.3633 16.3471 35.6892 16.9273 36.2694C17.5074 36.8496 17.8334 37.6365 17.8334 38.4569V82.8047C17.8334 83.3519 17.616 83.8766 17.2291 84.2635C16.8422 84.6504 16.3175 84.8678 15.7703 84.8678H13.7092C13.162 84.8678 12.6372 84.6504 12.2503 84.2635C11.8634 83.8766 11.6461 83.3519 11.6461 82.8047V38.4569C11.6461 37.6365 11.972 36.8496 12.5522 36.2694C13.1323 35.6892 13.9192 35.3633 14.7397 35.3633Z" stroke="#00008F" stroke-width="2" stroke-linecap="round" stroke-linejoin="round"/>
<path d="M77.7667 72.2383H83.9999V82.6268C83.9999 83.1779 83.781 83.7065 83.3912 84.0962C83.0014 84.4859 82.4728 84.7048 81.9215 84.7048H79.8451C79.5721 84.7048 79.3019 84.6511 79.0497 84.5467C78.7975 84.4422 78.5684 84.2892 78.3754 84.0962C78.1824 83.9032 78.0293 83.6741 77.9249 83.422C77.8204 83.1699 77.7667 82.8997 77.7667 82.6268V72.2383Z" stroke="#00008F" stroke-width="2" stroke-linecap="round" stroke-linejoin="round"/>
<path d="M17.9128 55.9902H73.9863C76.6421 55.9902 79.1891 57.0768 81.067 59.011C82.9449 60.9452 83.9999 63.5684 83.9999 66.3038H17.9128V55.9902Z" stroke="#00008F" stroke-width="2" stroke-linecap="round" stroke-linejoin="round"/>
<path d="M78.9889 72.2383H17.9128" stroke="#00008F" stroke-width="2" stroke-linecap="round" stroke-linejoin="round"/>
<path d="M83.9999 72.1161V66.2495" stroke="#00008F" stroke-width="2" stroke-linecap="round" stroke-linejoin="round"/>
<path d="M17.8332 45.6772C28.0841 45.6772 36.3971 50.2982 36.3971 55.9908" stroke="#00008F" stroke-width="2" stroke-linecap="round" stroke-linejoin="round"/>
<path d="M62.754 19.8913H54.5036V11.6409C54.5036 11.3676 54.395 11.1055 54.2017 10.9122C54.0085 10.7189 53.7463 10.6104 53.473 10.6104H43.1595C42.8862 10.6104 42.624 10.7189 42.4308 10.9122C42.2375 11.1055 42.1289 11.3676 42.1289 11.6409V19.8913H33.8765C33.6032 19.8913 33.3411 19.9999 33.1478 20.1932C32.9545 20.3865 32.846 20.6486 32.846 20.9219V31.2354C32.846 31.5088 32.9545 31.7709 33.1478 31.9642C33.3411 32.1574 33.6032 32.266 33.8765 32.266H42.127V40.5164C42.127 40.6518 42.1536 40.7858 42.2054 40.9108C42.2572 41.0358 42.3331 41.1494 42.4288 41.2451C42.5245 41.3408 42.6381 41.4168 42.7632 41.4685C42.8882 41.5203 43.0222 41.547 43.1575 41.547H53.471C53.6064 41.547 53.7404 41.5203 53.8654 41.4685C53.9905 41.4168 54.1041 41.3408 54.1998 41.2451C54.2955 41.1494 54.3714 41.0358 54.4232 40.9108C54.475 40.7858 54.5016 40.6518 54.5016 40.5164V32.268H62.752C62.8874 32.268 63.0214 32.2413 63.1464 32.1895C63.2715 32.1377 63.3851 32.0618 63.4808 31.9661C63.5765 31.8704 63.6524 31.7568 63.7042 31.6318C63.7559 31.5067 63.7826 31.3727 63.7826 31.2374V20.9239C63.7829 20.7885 63.7565 20.6545 63.7049 20.5293C63.6533 20.4042 63.5777 20.2905 63.4821 20.1946C63.3866 20.0987 63.2732 20.0226 63.1482 19.9705C63.0233 19.9185 62.8893 19.8916 62.754 19.8913Z" stroke="#00008F" stroke-width="2" stroke-linecap="round" stroke-linejoin="round"/>
</svg>

<svg width="96" height="96" viewBox="0 0 96 96" fill="none" xmlns="http://www.w3.org/2000/svg"><path d="M14.74 35.363a3.094 3.094 0 013.093 3.094v44.348a2.063 2.063 0 01-2.063 2.063h-2.06a2.063 2.063 0 01-2.064-2.063V38.457a3.094 3.094 0 013.094-3.094zM77.767 72.238H84v10.389a2.078 2.078 0 01-2.079 2.078h-2.076a2.08 2.08 0 01-2.078-2.078V72.238zM17.913 55.99h56.073c2.656 0 5.203 1.087 7.081 3.021C82.945 60.945 84 63.568 84 66.304H17.913V55.99zM78.989 72.238H17.913M84 72.116V66.25M17.833 45.677c10.251 0 18.564 4.621 18.564 10.314M62.754 19.891h-8.25v-8.25a1.03 1.03 0 00-1.031-1.03H43.16a1.03 1.03 0 00-1.031 1.03v8.25h-8.252a1.03 1.03 0 00-1.031 1.03v10.314a1.03 1.03 0 001.03 1.031h8.251v8.25a1.03 1.03 0 001.03 1.031h10.314a1.03 1.03 0 001.03-1.03v-8.249h8.251a1.03 1.03 0 001.03-1.03V20.923a1.03 1.03 0 00-1.028-1.033z" stroke="#00008F" stroke-width="2" stroke-linecap="round" stroke-linejoin="round"/></svg>
